X: 1
T: Jim Anderson's Delight
C: Ronnie Cooper
C: arr. T. Traub 12-11-1997
M: 6/8
R: jig
K: A
L: 1/8
a/f/ | "A"eAA cBA | "E7"efg "A"aga | "Bm"fBB fga | "D"bag "E7"agf | "A"eAA cBA | "E7"efg "D"agf | "A"edc "E7"dcB | "A"cAA A2 :|
  f  | "A"e2a c2a | "E7"efg "A"aga | "Bm"fBB fga | "D"bag "E7"agf | "A"e2a c2a | "E7"efg "D"agf | "A"edc "E7"dcB | "A"cAA A2 ||
  f  | "A"e2a c2a | "E7"efg "A"aga | "Bm"fBB fga | "D"bag "E7"agf | "A"eAA cBA | "E7"efg "D"agf | "A"edc "E7"dcB | "A"cAA A2 |]
